ix/paintbucket_twotone.svg

<svg viewBox="0 0 24 24" fill="none" xmlns="http://www.w3.org/2000/svg" height="1em" width="1em">
  <path d="M3.7706 15.56L7.2306 19.02C9.6606 21.45 10.4906 21.41 12.8906 19.02L18.4606 13.45C20.4006 11.51 20.8906 10.22 18.4606 7.78996L15.0006 4.32996C12.4106 1.73996 11.2806 2.38996 9.3406 4.32996L3.7706 9.89996C1.3806 12.3 1.1806 12.97 3.7706 15.56Z" stroke="#292D32" stroke-width="1.5" stroke-linecap="round" stroke-linejoin="round"/>
  <path opacity="0.4" d="M19.1995 16.79L18.5395 17.88C17.6095 19.43 18.3295 20.7 20.1395 20.7C21.9495 20.7 22.6695 19.43 21.7395 17.88L21.0795 16.79C20.5595 15.93 19.7095 15.93 19.1995 16.79Z" stroke="#292D32" stroke-width="1.5" stroke-linecap="round" stroke-linejoin="round"/>
  <path opacity="0.4" d="M2 12.2398C7.56 10.7298 13.42 10.6798 19 12.1098L19.5 12.2398" stroke="#292D32" stroke-width="1.5" stroke-linecap="round" stroke-linejoin="round"/>
</svg>

<svg viewBox="0 0 24 24" fill="none" xmlns="http://www.w3.org/2000/svg" height="1em" width="1em">
  <path d="m3.77 15.56 3.46 3.46c2.43 2.43 3.26 2.39 5.66 0l5.57-5.57c1.94-1.94 2.43-3.23 0-5.66L15 4.33c-2.59-2.59-3.72-1.94-5.66 0L3.77 9.9c-2.39 2.4-2.59 3.07 0 5.66Z" stroke="#292D32" stroke-width="1.5" stroke-linecap="round" stroke-linejoin="round"/>
  <path opacity=".4" d="m19.2 16.79-.66 1.09c-.93 1.55-.21 2.82 1.6 2.82s2.53-1.27 1.6-2.82l-.66-1.09c-.52-.86-1.37-.86-1.88 0ZM2 12.24a33.319 33.319 0 0 1 17-.13l.5.13" stroke="#292D32" stroke-width="1.5" stroke-linecap="round" stroke-linejoin="round"/>
</svg>
